X:120
T: Home by Ballycashen
R: jig
S: P.J. King, Ennis (via IRTRAD)
L: 1/8
M: 6/8
K: D
~F3 ~G3 | FED EFG | Adf ecA | ~G3 EFG |
FAd GAd | FED EFG | Adf ecA | GEA D3 :|
~f3 d2B | Adf agf | ~e2f gfe | efd cBA |
~f3 d2B | Adf agf | Bef gab | aec d3 :|
